X: 16
T: The Rakes Of Kildare
B: begged borrowed and stolen
B: ralph
B: nick
B: steve tunes
M:6/8
L:1/8
R: jig
Q: 3/8=100
K:Adorian
V:1 
|:"Am"EAA AGA|Bcd e2f|"G"gfg ege|dBA G2D|
"Am"EAA AGA|Bcd e2f|"G"gfg edB|"Am"A3 A2G:|
|:"Am"aea aea|aea b2a|"G"gfg ege|dBA G3| 
[1 "Am"aea aea|aea b2a|"G"gfe dBG|"Am"ABA A3:|
 [2 "Am"EAA AGA|Bcd e2f|"G"gfe dBG|"Am"ABA A3||
% abcbook-tune_id 62828a3a30f44d795c3e41b9


% abcbook-boost 0
% abcbook-tablature 
% abcbook-transpose 
% abcbook-lastupdated 1665491505058
% abcbook-soundfonts 
% abcbook-repeats 3
% abc-sessionorg_id 84
% abc-sessionorg_setting 0
% abc-sessionorg_setting_id 84
% abc-boost 0

